src/icons/chevron.svg

<?xml version="1.0" encoding="UTF-8"?>
<svg width="30px" height="30px" viewBox="0 0 30 30" version="1.1" xmlns="http://www.w3.org/2000/svg" xmlns:xlink="http://www.w3.org/1999/xlink">
    <title>Chevron 2</title>
    <defs>
        <filter id="filter-1">
            <feColorMatrix in="SourceGraphic" type="matrix" values="0 0 0 0 0.140513 0 0 0 0 0.064018 0 0 0 0 0.322209 0 0 0 1.000000 0"></feColorMatrix>
        </filter>
    </defs>
    <g id="Page-1" stroke="none" stroke-width="1" fill="none" fill-rule="evenodd">
        <g id="Qui-suis-je" transform="translate(-939.000000, -1211.000000)">
            <g id="Chevron-2" transform="translate(939.000000, 1211.000000)" filter="url(#filter-1)">
                <g>
                    <path d="M15,0 C6.71572266,0 0,6.71572266 0,15 C0,23.2842773 6.71572266,30 15,30 C23.2842773,30 30,23.2842773 30,15 C30,6.71572266 23.2842773,0 15,0 Z M18.4753711,15.6629297 L14.2566211,19.8816797 C14.0735742,20.0647266 13.8336328,20.1563086 13.59375,20.1563086 C12.7660547,20.1563086 12.3386133,19.1481445 12.9308789,18.5559375 L16.4866992,15.0000586 L12.9308789,11.4441797 C12.5647266,11.0780859 12.5647266,10.4844727 12.9308789,10.1183789 C13.2969727,9.75228516 13.8905859,9.75228516 14.2566797,10.1183789 L18.4754297,14.3371289 C18.8415234,14.7032812 18.8415234,15.2968359 18.4753711,15.6629297 Z" id="Shape" fill="#BE9ED5" fill-rule="nonzero"></path>
                </g>
            </g>
        </g>
    </g>
</svg>

<svg viewBox="0 0 30 30" width="30" height="30" xmlns="http://www.w3.org/2000/svg"><defs><filter id="a"><feColorMatrix in="SourceGraphic" values="0 0 0 0 0.140513 0 0 0 0 0.064018 0 0 0 0 0.322209 0 0 0 1.000000 0"/></filter></defs><g filter="url(#a)" fill="none" fill-rule="evenodd"><path class="chevron" d="M15 0C6.716 0 0 6.716 0 15c0 8.284 6.716 15 15 15 8.284 0 15-6.716 15-15 0-8.284-6.716-15-15-15zm3.475 15.663l-4.218 4.219a.935.935 0 01-.663.274c-.828 0-1.255-1.008-.663-1.6L16.487 15l-3.556-3.556a.937.937 0 111.326-1.326l4.218 4.22a.937.937 0 010 1.325z" fill-rule="nonzero"/></g></svg>
